X: 15031
T: George Rowley's
R: hornpipe
M: 4/4
K: Gmajor
ed|cdBc ABcd|e3A A2ed|cdBc ABcA|B3G G2ed|
cdBc A3A|BcBc de3|fgfg fage|dcA2 A2||
eg|ageg aged|c2A2 A2fg|fgfg edcb|G2G3 efg|
ageg aged|cBcd e3|fgfg fage|dca2 a4||

